svgs/solid/lock-keyhole.svg

<svg xmlns="http://www.w3.org/2000/svg" viewBox="0 0 448 512"><!--! Font Awesome Pro 6.6.0 by @fontawesome - https://fontawesome.com License - https://fontawesome.com/license (Commercial License) Copyright 2024 Fonticons, Inc. --><path d="M224 64c44.2 0 80 35.8 80 80l0 48-160 0 0-48c0-44.2 35.8-80 80-80zM80 144l0 48-16 0c-35.3 0-64 28.7-64 64L0 448c0 35.3 28.7 64 64 64l320 0c35.3 0 64-28.7 64-64l0-192c0-35.3-28.7-64-64-64l-16 0 0-48C368 64.5 303.5 0 224 0S80 64.5 80 144zM256 320l0 64c0 17.7-14.3 32-32 32s-32-14.3-32-32l0-64c0-17.7 14.3-32 32-32s32 14.3 32 32z"/></svg>

<svg xmlns="http://www.w3.org/2000/svg" viewBox="0 0 448 512"><!--! Font Awesome Pro 6.4.2 by @fontawesome - https://fontawesome.com License - https://fontawesome.com/license (Commercial License) Copyright 2023 Fonticons, Inc. --><path d="M224 64c44.2 0 80 35.8 80 80v48H144V144c0-44.2 35.8-80 80-80zM80 144v48H64c-35.3 0-64 28.7-64 64V448c0 35.3 28.7 64 64 64H384c35.3 0 64-28.7 64-64V256c0-35.3-28.7-64-64-64H368V144C368 64.5 303.5 0 224 0S80 64.5 80 144zM256 320v64c0 17.7-14.3 32-32 32s-32-14.3-32-32V320c0-17.7 14.3-32 32-32s32 14.3 32 32z"/></svg>
